austria/municipalities/41418.svg

<?xml version="1.0" encoding="UTF-8"?>
<!DOCTYPE svg PUBLIC "-//W3C//DTD SVG 1.1//EN" "http://www.w3.org/Graphics/SVG/1.1/DTD/svg11.dtd">
<svg xmlns="http://www.w3.org/2000/svg" version="1.1" width="166px" height="207px" style="shape-rendering:geometricPrecision; text-rendering:geometricPrecision; image-rendering:optimizeQuality; fill-rule:evenodd; clip-rule:evenodd" xmlns:xlink="http://www.w3.org/1999/xlink">
<g><path style="opacity:1" fill="#000000" d="M -0.5,-0.5 C 54.8333,-0.5 110.167,-0.5 165.5,-0.5C 165.5,44.1667 165.5,88.8333 165.5,133.5C 157.503,172.498 134.169,196.831 95.5,206.5C 86.8333,206.5 78.1667,206.5 69.5,206.5C 29.593,196.928 6.25968,171.928 -0.5,131.5C -0.5,87.5 -0.5,43.5 -0.5,-0.5 Z"/></g>
<g><path style="opacity:1" fill="#006632" d="M 3.5,3.5 C 56.1667,3.5 108.833,3.5 161.5,3.5C 161.667,47.8346 161.5,92.1679 161,136.5C 148.558,135.136 136.391,136.969 124.5,142C 118.5,142.667 112.5,142.667 106.5,142C 99.239,138.435 91.5723,136.601 83.5,136.5C 74.0556,138.146 64.5556,139.479 55,140.5C 44.9774,139.05 34.9774,137.384 25,135.5C 18.6079,135.778 12.6079,137.445 7,140.5C 6.22797,140.355 5.5613,140.022 5,139.5C 3.52043,94.2137 3.02043,48.8804 3.5,3.5 Z"/></g>
<g><path style="opacity:1" fill="#000000" d="M 76.5,13.5 C 98.363,12.8496 115.863,21.1829 129,38.5C 143.546,66.2793 139.713,91.1126 117.5,113C 100.31,125.185 81.6433,127.852 61.5,121C 34.3259,107.485 23.4926,85.6512 29,55.5C 36.5683,32.0956 52.4016,18.0956 76.5,13.5 Z"/></g>
<g><path style="opacity:1" fill="#fefffe" d="M 82.5,15.5 C 120.454,20.6223 137.954,42.289 135,80.5C 125.338,111.757 104.171,125.591 71.5,122C 45.9409,114.59 31.6076,97.5895 28.5,71C 31.6297,37.7066 49.6297,19.2066 82.5,15.5 Z"/></g>
<g><path style="opacity:1" fill="#000000" d="M 77.5,25.5 C 106.458,26.1256 122.792,40.7923 126.5,69.5C 124.934,89.4764 114.934,103.31 96.5,111C 73.0343,116.737 55.2009,109.237 43,88.5C 34.3287,64.515 40.4953,45.3483 61.5,31C 66.715,28.4295 72.0484,26.5961 77.5,25.5 Z"/></g>
<g><path style="opacity:1" fill="#fefffe" d="M 78.5,27.5 C 106.005,28.2417 121.339,42.2417 124.5,69.5C 122.167,95.1667 108.167,109.167 82.5,111.5C 57.201,108.868 43.201,94.8676 40.5,69.5C 42.4065,45.6 55.0731,31.6 78.5,27.5 Z"/></g>
<g><path style="opacity:1" fill="#000000" d="M 81.5,49.5 C 88.9107,55.4053 95.9107,61.9053 102.5,69C 96.3501,76.3168 89.6834,83.1502 82.5,89.5C 75.4729,83.1396 68.8063,76.4729 62.5,69.5C 68.9042,62.766 75.2375,56.0994 81.5,49.5 Z"/></g>
<g><path style="opacity:1" fill="#fe9900" d="M 85.5,56.5 C 84.8826,56.6107 84.3826,56.944 84,57.5C 83.5017,60.8168 83.335,64.1501 83.5,67.5C 87.7016,67.8168 91.7016,67.4834 95.5,66.5C 100.833,68.5 100.833,70.5 95.5,72.5C 95.5,71.8333 95.1667,71.5 94.5,71.5C 91.0381,70.5184 87.3714,70.185 83.5,70.5C 83.185,74.3714 83.5184,78.0381 84.5,81.5C 84.5,82.1667 84.8333,82.5 85.5,82.5C 83.5,87.8333 81.5,87.8333 79.5,82.5C 81.4228,78.9707 82.0894,74.9707 81.5,70.5C 77.6286,70.185 73.9619,70.5184 70.5,71.5C 69.8333,71.5 69.5,71.8333 69.5,72.5C 64.1667,70.5 64.1667,68.5 69.5,66.5C 72.6248,67.4794 75.9581,67.8128 79.5,67.5C 80.7773,66.3064 81.4439,64.6397 81.5,62.5C 81.3333,60.8333 81.1667,59.1667 81,57.5C 80.6174,56.944 80.1174,56.6107 79.5,56.5C 81.5,51.1667 83.5,51.1667 85.5,56.5 Z"/></g>
<g><path style="opacity:1" fill="#016432" d="M 79.5,56.5 C 79.5,60.1667 79.5,63.8333 79.5,67.5C 75.9581,67.8128 72.6248,67.4794 69.5,66.5C 71.8333,62.1667 75.1667,58.8333 79.5,56.5 Z"/></g>
<g><path style="opacity:1" fill="#000000" d="M 79.5,56.5 C 80.1174,56.6107 80.6174,56.944 81,57.5C 81.1667,59.1667 81.3333,60.8333 81.5,62.5C 81.4439,64.6397 80.7773,66.3064 79.5,67.5C 79.5,63.8333 79.5,60.1667 79.5,56.5 Z"/></g>
<g><path style="opacity:1" fill="#08592d" d="M 85.5,56.5 C 89.8333,58.8333 93.1667,62.1667 95.5,66.5C 91.7016,67.4834 87.7016,67.8168 83.5,67.5C 83.335,64.1501 83.5017,60.8168 84,57.5C 84.3826,56.944 84.8826,56.6107 85.5,56.5 Z"/></g>
<g><path style="opacity:1" fill="#000000" d="M 70.5,71.5 C 73.9619,70.5184 77.6286,70.185 81.5,70.5C 82.0894,74.9707 81.4228,78.9707 79.5,82.5C 79.5,78.8333 79.5,75.1667 79.5,71.5C 76.5,71.5 73.5,71.5 70.5,71.5 Z"/></g>
<g><path style="opacity:1" fill="#000000" d="M 94.5,71.5 C 91.1667,71.5 87.8333,71.5 84.5,71.5C 84.5,74.8333 84.5,78.1667 84.5,81.5C 83.5184,78.0381 83.185,74.3714 83.5,70.5C 87.3714,70.185 91.0381,70.5184 94.5,71.5 Z"/></g>
<g><path style="opacity:1" fill="#016432" d="M 70.5,71.5 C 73.5,71.5 76.5,71.5 79.5,71.5C 79.5,75.1667 79.5,78.8333 79.5,82.5C 75.1667,80.1667 71.8333,76.8333 69.5,72.5C 69.5,71.8333 69.8333,71.5 70.5,71.5 Z"/></g>
<g><path style="opacity:1" fill="#016331" d="M 94.5,71.5 C 95.1667,71.5 95.5,71.8333 95.5,72.5C 93.1667,76.8333 89.8333,80.1667 85.5,82.5C 84.8333,82.5 84.5,82.1667 84.5,81.5C 84.5,78.1667 84.5,74.8333 84.5,71.5C 87.8333,71.5 91.1667,71.5 94.5,71.5 Z"/></g>
<g><path style="opacity:1" fill="#fefffe" d="M -0.5,131.5 C 6.25968,171.928 29.593,196.928 69.5,206.5C 46.1667,206.5 22.8333,206.5 -0.5,206.5C -0.5,181.5 -0.5,156.5 -0.5,131.5 Z"/></g>
<g><path style="opacity:1" fill="#fefffe" d="M 165.5,133.5 C 165.5,157.833 165.5,182.167 165.5,206.5C 142.167,206.5 118.833,206.5 95.5,206.5C 134.169,196.831 157.503,172.498 165.5,133.5 Z"/></g>
<g><path style="opacity:1" fill="#fefffe" d="M 20.5,137.5 C 32.2032,138.119 43.7032,139.786 55,142.5C 62.0405,142.599 68.8739,141.432 75.5,139C 86.408,137.247 96.7413,138.914 106.5,144C 112.5,144.667 118.5,144.667 124.5,144C 132.849,140.58 141.515,138.413 150.5,137.5C 153.931,138.015 157.264,138.848 160.5,140C 159.809,141.067 159.309,142.234 159,143.5C 154.921,142.371 150.755,142.204 146.5,143C 136.778,146.63 126.778,149.13 116.5,150.5C 104.572,147.852 92.5721,145.519 80.5,143.5C 72.417,145.562 64.2503,147.229 56,148.5C 45.9851,145.955 35.8184,144.289 25.5,143.5C 19.1202,143.036 13.4535,144.702 8.5,148.5C 7.24848,146.999 6.24848,145.332 5.5,143.5C 10.4581,141.077 15.4581,139.077 20.5,137.5 Z"/></g>
<g><path style="opacity:1" fill="#cb0000" d="M 147.5,144.5 C 158.03,141.867 160.696,145.034 155.5,154C 144.086,153.693 133.086,155.693 122.5,160C 120.167,160.167 117.833,160.333 115.5,160.5C 104.808,158.716 94.1413,156.716 83.5,154.5C 75.711,156.158 67.8777,157.491 60,158.5C 54.0577,157.966 48.2243,156.799 42.5,155C 32.2595,153.33 22.5928,154.83 13.5,159.5C 10.4836,157.97 8.81696,155.47 8.5,152C 10.823,148.498 14.1563,146.498 18.5,146C 23.1667,145.333 27.8333,145.333 32.5,146C 40.8176,147.563 49.1509,149.063 57.5,150.5C 65.2739,149.212 72.9406,147.546 80.5,145.5C 92.5485,147.576 104.549,149.91 116.5,152.5C 127.132,150.665 137.465,147.999 147.5,144.5 Z"/></g>
<g><path style="opacity:1" fill="#fefffe" d="M 24.5,156.5 C 30.1764,156.334 35.8431,156.501 41.5,157C 47.7543,158.699 54.0876,159.865 60.5,160.5C 68.2394,159.649 75.9061,158.316 83.5,156.5C 94.0422,159.101 104.709,161.101 115.5,162.5C 123.787,161.928 131.787,160.095 139.5,157C 144.5,156.333 149.5,156.333 154.5,157C 153.833,158.333 153.167,159.667 152.5,161C 147.133,161.403 141.799,162.07 136.5,163C 128.903,165.866 121.069,167.7 113,168.5C 102.8,166.693 92.6336,164.693 82.5,162.5C 75.367,164.882 68.0337,165.882 60.5,165.5C 50.6321,164.909 40.7987,163.909 31,162.5C 28.5,162.667 26,162.833 23.5,163C 21.2457,164.256 18.9123,165.423 16.5,166.5C 15.5,165.167 14.5,163.833 13.5,162.5C 17.1003,160.203 20.767,158.203 24.5,156.5 Z"/></g>
<g><path style="opacity:1" fill="#cb0000" d="M 142.5,163.5 C 145.247,163.187 147.914,163.52 150.5,164.5C 131.382,194.395 104.049,206.895 68.5,202C 47.1061,197.425 30.1061,186.259 17.5,168.5C 21.7167,165.786 26.3834,164.452 31.5,164.5C 41.1264,165.991 50.7931,166.991 60.5,167.5C 68.4055,167.512 76.2388,166.845 84,165.5C 93.4144,166.687 102.748,168.353 112,170.5C 122.535,169.23 132.702,166.896 142.5,163.5 Z"/></g>
</svg>

<svg xmlns="http://www.w3.org/2000/svg" width="166" height="207" style="shape-rendering:geometricPrecision;text-rendering:geometricPrecision;image-rendering:optimizeQuality;fill-rule:evenodd;clip-rule:evenodd"><path style="opacity:1" d="M-.5-.5h166v134c-7.997 38.998-31.331 63.331-70 73h-26c-39.907-9.572-63.24-34.572-70-75V-.5z"/><path style="opacity:1" fill="#006632" d="M3.5 3.5h158c.167 44.335 0 88.668-.5 133-12.442-1.364-24.609.469-36.5 5.5-6 .667-12 .667-18 0-7.261-3.565-14.928-5.399-23-5.5a435.314 435.314 0 0 1-28.5 4 708.038 708.038 0 0 1-30-5c-6.392.278-12.392 1.945-18 5a3.944 3.944 0 0 1-2-1C3.52 94.214 3.02 48.88 3.5 3.5z"/><path style="opacity:1" d="M76.5 13.5c21.863-.65 39.363 7.683 52.5 25 14.546 27.78 10.713 52.613-11.5 74.5-17.19 12.185-35.857 14.852-56 8C34.326 107.485 23.493 85.651 29 55.5c7.568-23.404 23.402-37.404 47.5-42z"/><path style="opacity:1" fill="#fefffe" d="M82.5 15.5c37.954 5.122 55.454 26.789 52.5 65-9.662 31.257-30.829 45.091-63.5 41.5-25.56-7.41-39.892-24.41-43-51 3.13-33.293 21.13-51.793 54-55.5z"/><path style="opacity:1" d="M77.5 25.5c28.958.626 45.292 15.292 49 44-1.566 19.976-11.566 33.81-30 41.5-23.466 5.737-41.3-1.763-53.5-22.5-8.671-23.985-2.505-43.152 18.5-57.5 5.215-2.57 10.548-4.404 16-5.5z"/><path style="opacity:1" fill="#fefffe" d="M78.5 27.5c27.505.742 42.839 14.742 46 42-2.333 25.667-16.333 39.667-42 42-25.299-2.632-39.299-16.632-42-42 1.907-23.9 14.573-37.9 38-42z"/><path style="opacity:1" d="M81.5 49.5a191.628 191.628 0 0 1 21 19.5 193.487 193.487 0 0 1-20 20.5 283.025 283.025 0 0 1-20-20c6.404-6.734 12.737-13.4 19-20z"/><path style="opacity:1" fill="#fe9900" d="M85.5 56.5c-.617.11-1.117.444-1.5 1a50.441 50.441 0 0 0-.5 10c4.202.317 8.202-.017 12-1 5.333 2 5.333 4 0 6 0-.667-.333-1-1-1-3.462-.982-7.129-1.315-11-1-.315 3.871.018 7.538 1 11 0 .667.333 1 1 1-2 5.333-4 5.333-6 0 1.923-3.53 2.59-7.53 2-12-3.871-.315-7.538.018-11 1-.667 0-1 .333-1 1-5.333-2-5.333-4 0-6 3.125.98 6.458 1.313 10 1 1.277-1.194 1.944-2.86 2-5l-.5-5c-.383-.556-.883-.89-1.5-1 2-5.333 4-5.333 6 0z"/><path style="opacity:1" fill="#016432" d="M79.5 56.5v11c-3.542.313-6.875-.02-10-1 2.333-4.333 5.667-7.667 10-10z"/><path style="opacity:1" d="M79.5 56.5c.617.11 1.117.444 1.5 1l.5 5c-.056 2.14-.723 3.806-2 5v-11z"/><path style="opacity:1" fill="#08592d" d="M85.5 56.5c4.333 2.333 7.667 5.667 10 10-3.798.983-7.798 1.317-12 1-.165-3.35.002-6.683.5-10 .383-.556.883-.89 1.5-1z"/><path style="opacity:1" d="M70.5 71.5c3.462-.982 7.129-1.315 11-1 .59 4.47-.077 8.47-2 12v-11h-9zM94.5 71.5h-10v10c-.982-3.462-1.315-7.129-1-11 3.871-.315 7.538.018 11 1z"/><path style="opacity:1" fill="#016432" d="M70.5 71.5h9v11c-4.333-2.333-7.667-5.667-10-10 0-.667.333-1 1-1z"/><path style="opacity:1" fill="#016331" d="M94.5 71.5c.667 0 1 .333 1 1-2.333 4.333-5.667 7.667-10 10-.667 0-1-.333-1-1v-10h10z"/><path style="opacity:1" fill="#fefffe" d="M-.5 131.5c6.76 40.428 30.093 65.428 70 75h-70v-75zM165.5 133.5v73h-70c38.669-9.669 62.003-34.002 70-73z"/><path style="opacity:1" fill="#fefffe" d="M20.5 137.5a190.433 190.433 0 0 1 34.5 5 56.694 56.694 0 0 0 20.5-3.5c10.908-1.753 21.241-.086 31 5 6 .667 12 .667 18 0a93.052 93.052 0 0 1 26-6.5 53.36 53.36 0 0 1 10 2.5 11.333 11.333 0 0 0-1.5 3.5c-4.079-1.129-8.245-1.296-12.5-.5a137.393 137.393 0 0 1-30 7.5 695.275 695.275 0 0 0-36-7 257.94 257.94 0 0 1-24.5 5 179.022 179.022 0 0 0-30.5-5c-6.38-.464-12.046 1.202-17 5a18.95 18.95 0 0 1-3-5c4.958-2.423 9.958-4.423 15-6z"/><path style="opacity:1" fill="#cb0000" d="M147.5 144.5c10.53-2.633 13.196.534 8 9.5-11.414-.307-22.414 1.693-33 6l-7 .5a814.318 814.318 0 0 1-32-6 289.449 289.449 0 0 1-23.5 4 82.977 82.977 0 0 1-17.5-3.5c-10.24-1.67-19.907-.17-29 4.5-3.016-1.53-4.683-4.03-5-7.5 2.323-3.502 5.656-5.502 10-6a49.226 49.226 0 0 1 14 0c8.318 1.563 16.65 3.063 25 4.5a235.012 235.012 0 0 0 23-5 857.07 857.07 0 0 1 36 7 194.413 194.413 0 0 0 31-8z"/><path style="opacity:1" fill="#fefffe" d="M24.5 156.5a145.05 145.05 0 0 1 17 .5 115.934 115.934 0 0 0 19 3.5 186.382 186.382 0 0 0 23-4 288.133 288.133 0 0 0 32 6 78.586 78.586 0 0 0 24-5.5c5-.667 10-.667 15 0l-2 4a163.202 163.202 0 0 0-16 2 92.02 92.02 0 0 1-23.5 5.5 822.643 822.643 0 0 1-30.5-6 59.366 59.366 0 0 1-22 3 357.223 357.223 0 0 1-29.5-3l-7.5.5a88.515 88.515 0 0 1-7 3.5l-3-4a89.557 89.557 0 0 1 11-6z"/><path style="opacity:1" fill="#cb0000" d="M142.5 163.5c2.747-.313 5.414.02 8 1-19.118 29.895-46.451 42.395-82 37.5-21.394-4.575-38.394-15.741-51-33.5 4.217-2.714 8.883-4.048 14-4a287.812 287.812 0 0 0 29 3c7.906.012 15.739-.655 23.5-2a277.162 277.162 0 0 1 28 5c10.535-1.27 20.702-3.604 30.5-7z"/></svg>
